trunk/WorldWind/resources/milstd2525/icons/ems/efoadk---------.svg

<?xml version="1.0" encoding="UTF-8" standalone="no"?>
<!--
Copyright (C) 2012 United States Government as represented by the Administrator of the
National Aeronautics and Space Administration.
All Rights Reserved.
-->

<!--
MIL-STD-2525 tactical symbol icon image. During icon composition this image is multiplied by the desired frame color 
(e.g. black), then drawn on top of the frame and fill.
-->

<svg
   xmlns:dc="http://purl.org/dc/elements/1.1/"
   xmlns:cc="http://creativecommons.org/ns#"
   xmlns:rdf="http://www.w3.org/1999/02/22-rdf-syntax-ns#"
   xmlns:svg="http://www.w3.org/2000/svg"
   xmlns="http://www.w3.org/2000/svg"
   xmlns:sodipodi="http://sodipodi.sourceforge.net/DTD/sodipodi-0.dtd"
   xmlns:inkscape="http://www.inkscape.org/namespaces/inkscape"
   height="400px"
   viewBox="0 0 400 400"
   width="400px"
   id="svg2"
   version="1.1"
   inkscape:version="0.48.2 r9819"
   sodipodi:docname="efoadk---------.svg">
  <metadata
     id="metadata28">
    <rdf:RDF>
      <cc:Work
         rdf:about="">
        <dc:format>image/svg+xml</dc:format>
        <dc:type
           rdf:resource="http://purl.org/dc/dcmitype/StillImage" />
      </cc:Work>
    </rdf:RDF>
  </metadata>
  <defs
     id="defs26" />
  <sodipodi:namedview
     pagecolor="#ffffff"
     bordercolor="#666666"
     borderopacity="1"
     objecttolerance="10"
     gridtolerance="10"
     guidetolerance="10"
     inkscape:pageopacity="0"
     inkscape:pageshadow="2"
     inkscape:window-width="640"
     inkscape:window-height="480"
     id="namedview24"
     showgrid="false"
     inkscape:zoom="0.59"
     inkscape:cx="200"
     inkscape:cy="200"
     inkscape:window-x="0"
     inkscape:window-y="0"
     inkscape:window-maximized="0"
     inkscape:current-layer="svg2" />
  <g
     transform="matrix(90,0,0,90,86.00004,86.00004)"
     id="g4">
    <path
       inkscape:connector-curvature="0"
       d="m 1.23112,1.42641 0.04533,0 c 0.08648,0 0.17001,-0.13809 0.17001,-0.23234 l 0,-0.03967 c 0,-0.10147 -0.08832,-0.232345 -0.18701,-0.232345 l -0.02266,0 c -0.11161,0 -0.1866,0.137635 -0.19108,0.250145 -0.00443,0.11154 0.07902,0.25421 0.18541,0.25421 z"
       style="fill:#ffffff"
       id="path6" />
    <path
       inkscape:connector-curvature="0"
       d="m 0.647421,1.59642 0,-0.017 c 0,-0.05337 -0.042205,-0.11334 -0.096335,-0.11334 -0.089212,0 -0.117594,0.13936 -0.071547,0.20756 0.056748,0.08404 0.167882,0.02872 0.167882,-0.07722 z"
       style="fill:#ffffff"
       id="path8" />
    <path
       inkscape:connector-curvature="0"
       d="M 1.87148,1.59075 1.87538,1.64313 1.92815,1.71118 2.00182,1.70976 C 2.0265,1.6729 2.05849,1.67377 2.05849,1.59641 l 0,-0.00566 c 0,-0.05615 -0.03738,-0.12467 -0.09068,-0.12467 -0.05506,0 -0.10415,0.07252 -0.09633,0.12467 z"
       style="fill:#ffffff"
       id="path10" />
    <path
       inkscape:connector-curvature="0"
       d="m 1.99049,1.76076 0.04929,-0.01692 0.00738,0.16426 -0.05667,0 z M 1.58247,1.53408 c 0.06951,0.03678 0.07325,0.06264 0.11141,0.13228 0.027,0.04927 0.06427,0.10672 0.06427,0.1794 0.00428,0.0064 0.0133,0.02267 0.02266,0.02267 0.03251,0 0.06793,-0.12085 0.09634,-0.14167 l 0,0.01133 0.01134,0 0,0.17001 -0.30602,0 z m -0.53836,-0.017 c 0,-0.03433 0.12168,-0.02837 0.16434,-0.02833 0.06413,5e-5 0.1319,-0.017 0.17568,-0.017 0.03082,0 0.0717,0.02127 0.102,0.02833 l 0,0.40802 -0.44202,0 z M 0.641758,1.72676 c 0.03226,0.01168 0.069087,0.15301 0.096339,0.15301 0.048,0 0.050161,-0.13764 0.079484,-0.18686 C 0.848128,1.64163 0.875093,1.56103 0.942109,1.54542 l 0,0.36268 -0.30035,0 z M 0.490199,1.7495 c 0.013748,0.00347 0.043886,0.01044 0.043886,0.02826 l 0,0.13034 -0.052051,-5e-5 z M 1.87149,1.59075 C 1.86367,1.5386 1.91276,1.46608 1.96782,1.46608 c 0.0533,0 0.09068,0.06852 0.09068,0.12467 l 0,0.00567 c 0,0.07735 -0.032,0.07648 -0.05667,0.11334 L 1.92816,1.71118 1.87539,1.64313 z M 0.647429,1.59642 c 0,0.10594 -0.111134,0.16126 -0.167882,0.07721 C 0.4335,1.60544 0.461882,1.46608 0.551094,1.46608 c 0.05413,0 0.096335,0.05996 0.096335,0.11334 z m -0.005665,-0.94638 0.30035,0 0,0.82737 c 0,0.01916 -0.056134,0.02996 -0.078174,0.05217 C 0.8462,1.54746 0.825362,1.57897 0.810637,1.60095 0.785011,1.63921 0.739385,1.72008 0.738102,1.77776 L 0.68059,1.68187 C 0.688519,1.66665 0.698433,1.62484 0.698433,1.60209 l 0,-0.034 c 0,-0.06469 -0.05667,-0.10198 -0.05667,-0.13601 z m 0.940716,0 0.30601,0 0,0.78204 c 0,0.00999 -0.05603,0.0645 -0.06596,0.10972 -0.01604,0.07304 0.002,0.08401 0.01496,0.13963 L 1.7951,1.75676 C 1.78217,1.71226 1.73456,1.63444 1.71056,1.59868 1.67769,1.54972 1.65548,1.49482 1.58248,1.48875 z M 1.04412,1.36407 1.11077,1.43895 1.04412,1.45474 z M 1.4885,1.29187 1.48614,1.44341 1.40408,1.42824 z M 1.23113,1.42641 C 1.12474,1.42641 1.04128,1.28374 1.04572,1.1722 1.0502,1.05969 1.12518,0.922054 1.23679,0.922054 l 0.02267,0 c 0.09868,0 0.18701,0.130876 0.18701,0.232346 l 0,0.03967 c 0,0.09424 -0.08353,0.23234 -0.17001,0.23234 z m -0.18701,-0.776371 0.44202,0 0,0.413691 C 1.45912,1.03264 1.45421,0.989259 1.4054,0.940452 1.37297,0.908011 1.32719,0.876716 1.26513,0.876716 l -0.01134,0 c -0.04964,0 -0.10032,0.013736 -0.12892,0.035417 C 1.10948,0.923798 1.09508,0.934035 1.08122,0.947818 1.06601,0.962932 1.06075,0.978916 1.04412,0.990058 z m -0.685702,0 0.175673,0 0,0.770701 C 0.461012,1.43777 0.403752,1.50631 0.403752,1.59642 c 0,0.06237 0.031578,0.0825 0.034193,0.11882 C 0.4412,1.76051 0.432086,1.80994 0.432086,1.86277 l 0,0.04533 -0.073669,0 0,0.13034 1.773753,0 0,-0.13034 -0.03456,3e-5 L 2.08683,1.69276 C 2.1516,1.59603 2.09267,1.44455 1.99049,1.42074 l 0,-0.770702 0.14168,0 0,-0.130339 -1.773753,0 z"
       style="fill:#000000;stroke:#000000;stroke-width:0.06666667;stroke-miterlimit:4;stroke-opacity:1;stroke-dasharray:0.13333333, 0.06666667;stroke-dashoffset:0"
       id="path12" />
    <path
       inkscape:connector-curvature="0"
       d="m 0.482031,1.90805 0.052051,6e-5 0,-0.13035 c 0,-0.01782 -0.030138,-0.02479 -0.043886,-0.02826 z"
       style="fill:#ffffff"
       id="path14" />
    <path
       inkscape:connector-curvature="0"
       d="m 0.641756,1.9081 0.30035,0 0,-0.36268 C 0.87509,1.56103 0.848126,1.64162 0.817578,1.6929 0.788255,1.74213 0.786094,1.87977 0.738094,1.87977 0.710842,1.87977 0.674015,1.73843 0.641755,1.72676 z"
       style="fill:#ffffff"
       id="path16" />
    <path
       inkscape:connector-curvature="0"
       d="m 1.04411,1.9081 0.44202,0 0,-0.40802 C 1.45583,1.49302 1.41495,1.47175 1.38413,1.47175 c -0.04378,0 -0.11155,0.01705 -0.17568,0.017 -0.04266,-4e-5 -0.16434,-0.006 -0.16434,0.02833 z"
       style="fill:#ffffff"
       id="path18" />
    <path
       inkscape:connector-curvature="0"
       d="m 1.58247,1.9081 0.30602,0 0,-0.17001 -0.01134,0 0,-0.01133 C 1.84874,1.74757 1.81332,1.86843 1.78081,1.86843 1.77145,1.86843 1.76243,1.85215 1.75815,1.84576 1.75815,1.77307 1.72088,1.71563 1.69388,1.66635 1.65572,1.59671 1.65198,1.57086 1.58247,1.53408 z"
       style="fill:#ffffff"
       id="path20" />
    <polygon
       points="2.04716,1.9081 2.03978,1.74384 1.99049,1.76076 1.99049,1.9081 "
       style="fill:#ffffff"
       id="polygon22" />
  </g>
</svg>

<?xml version="1.0"?>
<!--
Copyright (C) 2012 United States Government as represented by the Administrator of the
National Aeronautics and Space Administration.
All Rights Reserved.
-->

<!DOCTYPE svg PUBLIC "-//W3C//DTD SVG 1.1//EN" "http://www.w3.org/Graphics/SVG/1.1/DTD/svg11.dtd" >
<!--
MIL-STD-2525 tactical symbol icon image. During icon composition this image is multiplied by the desired frame color 
(e.g. black), then drawn on top of the frame and fill.
-->
<svg xmlns:xlink="http://www.w3.org/1999/xlink" height="400px" viewBox="0 0 400 400" width="400px"><g transform="scale(90) translate(0.955556 0.955556)"><path d="M1.23112 1.42641 L1.27645 1.42641 C1.36293 1.42641 1.44646 1.28832 1.44646 1.19407     L1.44646 1.1544 C1.44646 1.05293 1.35814 0.922055 1.25945 0.922055 L1.23679     0.922055 C1.12518 0.922055 1.05019 1.05969 1.04571 1.1722 C1.04128 1.28374     1.12473 1.42641 1.23112 1.42641 z" style="fill:rgb(255,255,255)"/><path d="M0.647421 1.59642 L0.647421 1.57942 C0.647421 1.52605 0.605216 1.46608 0.551086 1.46608     C0.461874 1.46608 0.433492 1.60544 0.479539 1.67364 C0.536287 1.75768     0.647421 1.70236 0.647421 1.59642 z" style="fill:rgb(255,255,255)"/><path d="M1.87148 1.59075 L1.87538 1.64313 L1.92815 1.71118 L2.00182 1.70976 C2.0265 1.6729     2.05849 1.67377 2.05849 1.59641 L2.05849 1.59075 C2.05849 1.5346 2.02111 1.46608     1.96781 1.46608 C1.91275 1.46608 1.86366 1.5386 1.87148 1.59075 z" style="fill:rgb(255,255,255)"/><path d="M1.99049 1.76076 L2.03978 1.74384 L2.04716 1.9081 L1.99049 1.9081 zM1.58247 1.53408     C1.65198 1.57086 1.65572 1.59672 1.69388 1.66636 C1.72088 1.71563 1.75815     1.77308 1.75815 1.84576 C1.76243 1.85216 1.77145 1.86843 1.78081 1.86843 C1.81332     1.86843 1.84874 1.74758 1.87715 1.72676 L1.87715 1.73809 L1.88849 1.73809     L1.88849 1.9081 L1.58247 1.9081 zM1.04411 1.51708 C1.04411 1.48275 1.16579     1.48871 1.20845 1.48875 C1.27258 1.4888 1.34035 1.47175 1.38413 1.47175     C1.41495 1.47175 1.45583 1.49302 1.48613 1.50008 L1.48613 1.9081 L1.04411 1.9081     zM0.641758 1.72676 C0.674018 1.73844 0.710845 1.87977 0.738097 1.87977     C0.786097 1.87977 0.788258 1.74213 0.817581 1.69291 C0.848128 1.64163 0.875093     1.56103 0.942109 1.54542 L0.942109 1.9081 L0.641759 1.9081 zM0.490199 1.7495     C0.503947 1.75297 0.534085 1.75994 0.534085 1.77776 L0.534085 1.9081 L0.482034     1.90805 zM1.87149 1.59075 C1.86367 1.5386 1.91276 1.46608 1.96782 1.46608     C2.02112 1.46608 2.0585 1.5346 2.0585 1.59075 L2.0585 1.59642 C2.0585 1.67377     2.0265 1.6729 2.00183 1.70976 L1.92816 1.71118 L1.87539 1.64313 zM0.647429     1.59642 C0.647429 1.70236 0.536295 1.75768 0.479547 1.67363 C0.4335 1.60544     0.461882 1.46608 0.551094 1.46608 C0.605224 1.46608 0.647429 1.52604 0.647429     1.57942 zM0.641764 0.65004 L0.942114 0.65004 L0.942114 1.47741 C0.942114     1.49657 0.88598 1.50737 0.86394 1.52958 C0.8462 1.54746 0.825362 1.57897     0.810637 1.60095 C0.785011 1.63921 0.739385 1.72008 0.738102 1.77776 L0.68059     1.68187 C0.688519 1.66665 0.698433 1.62484 0.698433 1.60209 L0.698433 1.56809     C0.698433 1.5034 0.641763 1.46611 0.641763 1.43208 zM1.58248 0.65004 L1.88849     0.65004 L1.88849 1.43208 C1.88849 1.44207 1.83246 1.49658 1.82253 1.5418     C1.80649 1.61484 1.82453 1.62581 1.83749 1.68143 L1.7951 1.75676 C1.78217     1.71226 1.73456 1.63444 1.71056 1.59868 C1.67769 1.54972 1.65548 1.49482     1.58248 1.48875 zM1.04412 1.36407 L1.11077 1.43895 L1.04412 1.45474 zM1.4885     1.29187 L1.48614 1.44341 L1.40408 1.42824 zM1.23113 1.42641 C1.12474 1.42641     1.04128 1.28374 1.04572 1.1722 C1.0502 1.05969 1.12518 0.922054 1.23679 0.922054     L1.25946 0.922054 C1.35814 0.922054 1.44647 1.05293 1.44647 1.1544 L1.44647     1.19407 C1.44647 1.28831 1.36294 1.42641 1.27646 1.42641 zM1.04412 0.650039     L1.48614 0.650039 L1.48614 1.06373 C1.45912 1.03264 1.45421 0.989259     1.4054 0.940452 C1.37297 0.908011 1.32719 0.876716 1.26513 0.876716 L1.25379     0.876716 C1.20415 0.876716 1.15347 0.890452 1.12487 0.912133 C1.10948 0.923798     1.09508 0.934035 1.08122 0.947818 C1.06601 0.962932 1.06075 0.978916 1.04412     0.990058 zM0.358418 0.650039 L0.534091 0.650039 L0.534091 1.42074 C0.461012     1.43777 0.403752 1.50631 0.403752 1.59642 C0.403752 1.65879 0.43533 1.67892     0.437945 1.71524 C0.4412 1.76051 0.432086 1.80994 0.432086 1.86277 L0.432086     1.9081 L0.358417 1.9081 L0.358417 2.03844 L2.13217 2.03844 L2.13217 1.9081     L2.09761 1.90813 L2.08683 1.69276 C2.1516 1.59603 2.09267 1.44455 1.99049     1.42074 L1.99049 0.650038 L2.13217 0.650038 L2.13217 0.519699 L0.358417 0.519699     z" style="fill:rgb(0,0,0)"/><path d="M0.482031 1.90805 L0.534082 1.90811 L0.534082 1.77776 C0.534082 1.75994 0.503944     1.75297 0.490196 1.7495 z" style="fill:rgb(255,255,255)"/><path d="M0.641756 1.9081 L0.942106 1.9081 L0.942106 1.54542 C0.87509 1.56103 0.848126 1.64162     0.817578 1.6929 C0.788255 1.74213 0.786094 1.87977 0.738094 1.87977 C0.710842     1.87977 0.674015 1.73843 0.641755 1.72676 z" style="fill:rgb(255,255,255)"/><path d="M1.04411 1.9081 L1.48613 1.9081 L1.48613 1.50008 C1.45583 1.49302 1.41495 1.47175     1.38413 1.47175 C1.34035 1.47175 1.27258 1.4888 1.20845 1.48875 C1.16579 1.48871     1.04411 1.48275 1.04411 1.51708 z" style="fill:rgb(255,255,255)"/><path d="M1.58247 1.9081 L1.88849 1.9081 L1.88849 1.73809 L1.87715 1.73809 L1.87715 1.72676     C1.84874 1.74757 1.81332 1.86843 1.78081 1.86843 C1.77145 1.86843 1.76243     1.85215 1.75815 1.84576 C1.75815 1.77307 1.72088 1.71563 1.69388 1.66635 C1.65572     1.59671 1.65198 1.57086 1.58247 1.53408 z" style="fill:rgb(255,255,255)"/><polygon points="1.99049,1.9081 2.04716,1.9081 2.03978,1.74384 1.99049,1.76076" style="fill:rgb(255,255,255)"/></g></svg>
